wasmegg/rockets-tracker/src/badges/badge-30.svg

<svg xmlns="http://www.w3.org/2000/svg" xml:space="preserve" style="fill-rule:evenodd;clip-rule:evenodd;stroke-linejoin:round;stroke-miterlimit:2" viewBox="0 0 64 64"><path d="M.316-.691.312-.727a.04.04 0 0 0-.031-.029.1.1 0 0 0-.036-.001l-.03.002H.167Q.115-.756.062-.751c-.013.002-.024.01-.024.025 0 .012.011.026.024.024Q.11-.707.158-.706q.04.002.081-.001l.027-.001v.002l.001.007.001.015v.036l-.001.019-.001.009-.001.001-.001.006-.008.039-.006.018-.004.009v.002l-.002.004-.019.035-.011.016-.003.004-.007.009-.014.014-.01.01-.032.019-.004.001-.009.004-.019.005-.011.003L.1-.42H.076a.024.024 0 0 0-.023.018c-.004.012.004.028.017.03q.026.005.051.007l.006.001h.002l.01.002.024.005.01.003.003.001h.001l.015.009.01.01.006.007.002.002.002.003.01.015.004.008.002.004.001.004a.2.2 0 0 1 .016.069v.04l-.003.037-.001.007-.001.009-.004.019-.005.017-.003.007-.001.004L.22-.07l-.002.002-.004.005-.008.008-.002.002-.006.003-.006.003-.001.001-.014.004L.17-.04H.165l-.014.001H.119L.111-.04H.107L.089-.044.084-.046.08-.049.078-.05v-.001L.077-.052.076-.054.074-.06v-.006l.001-.005.002-.003.001-.001.003-.002C.093-.082.096-.099.09-.11.083-.122.068-.125.056-.119a.06.06 0 0 0-.027.032.1.1 0 0 0-.002.039c.004.028.028.045.053.052a.24.24 0 0 0 .139-.009.1.1 0 0 0 .046-.044.37.37 0 0 0 .018-.238.2.2 0 0 0-.069-.101L.188-.4a.2.2 0 0 0 .037-.028.32.32 0 0 0 .092-.231z" style="fill:#fff;fill-rule:nonzero" transform="matrix(56 0 0 56 11.952 53.058)"/><path d="M.345-.503.336-.6Q.334-.626.329-.65a.2.2 0 0 0-.018-.044.1.1 0 0 0-.026-.037.2.2 0 0 0-.039-.023.2.2 0 0 0-.081-.006c-.046.01-.078.053-.097.093a.5.5 0 0 0-.033.1.3.3 0 0 0-.005.131l.003.007q0 .075.003.149c.002.052.003.105.017.156a.18.18 0 0 0 .077.11.13.13 0 0 0 .072.019.1.1 0 0 0 .061-.026.2.2 0 0 0 .033-.054.3.3 0 0 0 .017-.054q.02-.09.031-.181.009-.097.001-.193m-.046.125-.002.049-.002.022-.002.012v.006l-.001.004q-.007.047-.016.092l-.015.069-.009.027-.002.006-.001.002-.006.013-.007.011-.001.001-.004.005-.004.004-.003.003-.009.005H.214l-.006.002-.002.001H.187L.173-.048.166-.051.163-.052.149-.06.144-.063.141-.066.13-.077.128-.08.124-.085.116-.098.109-.112.108-.114.105-.122l-.008-.03-.003-.015-.002-.008v-.004Q.087-.219.086-.258a4 4 0 0 1-.005-.218.03.03 0 0 0-.006-.017l.002-.024.001-.009.001-.005.003-.02.008-.034.009-.027.005-.014.002-.006.002-.005.015-.028.008-.013.003-.004.005-.005.01-.01L.152-.7l.005-.004.009-.005.005-.002.008-.002h.03l.001.001h.003l.009.002.008.003.004.001h.001l.012.008.005.004.005.006.002.002.003.004.005.009.005.009.002.005.002.004.006.018.002.01.001.003v.005l.005.048q.01.097.009.193" style="fill:#fff;fill-rule:nonzero" transform="matrix(56 0 0 56 31.104 53.058)"/></svg>

<?xml version="1.0" encoding="UTF-8" standalone="no"?>
<!DOCTYPE svg PUBLIC "-//W3C//DTD SVG 1.1//EN" "http://www.w3.org/Graphics/SVG/1.1/DTD/svg11.dtd">
<svg width="100%" height="100%" viewBox="0 0 64 64" version="1.1" xmlns="http://www.w3.org/2000/svg" xmlns:xlink="http://www.w3.org/1999/xlink" xml:space="preserve" xmlns:serif="http://www.serif.com/" style="fill-rule:evenodd;clip-rule:evenodd;stroke-linejoin:round;stroke-miterlimit:2;">
    <g transform="matrix(1,0,0,1,-18.8539,22.0452)">
        <g transform="matrix(56,0,0,56,30.8061,31.0123)">
            <path d="M0.316,-0.691C0.316,-0.703 0.315,-0.715 0.312,-0.727C0.308,-0.742 0.297,-0.752 0.281,-0.756C0.27,-0.758 0.257,-0.758 0.245,-0.757C0.235,-0.756 0.225,-0.755 0.215,-0.755L0.167,-0.755C0.132,-0.755 0.097,-0.755 0.062,-0.751C0.049,-0.749 0.038,-0.741 0.038,-0.726C0.038,-0.714 0.049,-0.7 0.062,-0.702C0.094,-0.706 0.126,-0.706 0.158,-0.706C0.185,-0.706 0.212,-0.704 0.239,-0.707C0.248,-0.708 0.257,-0.709 0.266,-0.708L0.266,-0.706C0.267,-0.704 0.267,-0.701 0.267,-0.699C0.267,-0.694 0.267,-0.689 0.268,-0.684L0.268,-0.648C0.268,-0.641 0.267,-0.635 0.267,-0.629C0.266,-0.626 0.266,-0.623 0.266,-0.62C0.266,-0.62 0.266,-0.619 0.265,-0.619C0.265,-0.617 0.265,-0.615 0.264,-0.613C0.262,-0.6 0.259,-0.587 0.256,-0.574L0.25,-0.556C0.248,-0.553 0.247,-0.55 0.246,-0.547L0.246,-0.545C0.245,-0.545 0.244,-0.542 0.244,-0.541C0.238,-0.529 0.232,-0.517 0.225,-0.506C0.221,-0.5 0.218,-0.495 0.214,-0.49C0.213,-0.489 0.212,-0.487 0.211,-0.486C0.209,-0.483 0.206,-0.48 0.204,-0.477C0.199,-0.472 0.195,-0.467 0.19,-0.463L0.18,-0.453C0.17,-0.446 0.159,-0.44 0.148,-0.434C0.146,-0.434 0.145,-0.433 0.144,-0.433C0.141,-0.431 0.138,-0.43 0.135,-0.429C0.129,-0.427 0.122,-0.425 0.116,-0.424C0.112,-0.423 0.109,-0.422 0.105,-0.421C0.104,-0.421 0.102,-0.421 0.1,-0.42L0.099,-0.42C0.091,-0.42 0.084,-0.419 0.076,-0.42C0.065,-0.42 0.055,-0.412 0.053,-0.402C0.049,-0.39 0.057,-0.374 0.07,-0.372C0.087,-0.368 0.104,-0.367 0.121,-0.365C0.123,-0.364 0.125,-0.364 0.127,-0.364L0.129,-0.364C0.133,-0.363 0.136,-0.363 0.139,-0.362C0.147,-0.361 0.155,-0.359 0.163,-0.357C0.166,-0.356 0.169,-0.355 0.173,-0.354C0.174,-0.354 0.175,-0.353 0.176,-0.353L0.177,-0.353L0.192,-0.344L0.202,-0.334C0.205,-0.332 0.206,-0.329 0.208,-0.327C0.209,-0.327 0.209,-0.326 0.21,-0.325C0.211,-0.324 0.211,-0.323 0.212,-0.322C0.215,-0.317 0.219,-0.312 0.222,-0.307C0.223,-0.304 0.224,-0.302 0.226,-0.299C0.226,-0.298 0.227,-0.296 0.228,-0.295C0.228,-0.294 0.229,-0.292 0.229,-0.291C0.234,-0.28 0.237,-0.269 0.24,-0.257C0.241,-0.251 0.242,-0.245 0.243,-0.238C0.243,-0.237 0.243,-0.235 0.244,-0.234C0.244,-0.23 0.244,-0.226 0.245,-0.222C0.246,-0.209 0.246,-0.195 0.245,-0.182C0.245,-0.17 0.244,-0.157 0.242,-0.145C0.242,-0.145 0.241,-0.139 0.241,-0.138C0.241,-0.135 0.24,-0.132 0.24,-0.129C0.238,-0.122 0.237,-0.116 0.236,-0.11C0.234,-0.104 0.233,-0.099 0.231,-0.093C0.23,-0.091 0.229,-0.088 0.228,-0.086C0.228,-0.085 0.227,-0.083 0.227,-0.082C0.225,-0.078 0.223,-0.074 0.22,-0.07C0.219,-0.069 0.219,-0.068 0.218,-0.068C0.218,-0.067 0.215,-0.064 0.214,-0.063C0.212,-0.06 0.209,-0.057 0.206,-0.055L0.204,-0.053L0.198,-0.05C0.196,-0.048 0.194,-0.047 0.192,-0.047C0.192,-0.046 0.191,-0.046 0.191,-0.046C0.186,-0.044 0.181,-0.043 0.177,-0.042C0.174,-0.041 0.172,-0.041 0.17,-0.04L0.165,-0.04C0.16,-0.039 0.156,-0.039 0.151,-0.039C0.141,-0.038 0.13,-0.038 0.119,-0.039C0.117,-0.039 0.114,-0.039 0.111,-0.04L0.107,-0.04C0.101,-0.041 0.095,-0.043 0.089,-0.044C0.088,-0.045 0.085,-0.046 0.084,-0.046C0.083,-0.047 0.081,-0.048 0.08,-0.049C0.079,-0.049 0.079,-0.05 0.078,-0.05L0.078,-0.051C0.077,-0.051 0.077,-0.052 0.077,-0.052C0.076,-0.053 0.076,-0.053 0.076,-0.054C0.075,-0.056 0.075,-0.058 0.074,-0.06L0.074,-0.066C0.074,-0.068 0.075,-0.069 0.075,-0.071C0.076,-0.072 0.076,-0.073 0.077,-0.074L0.078,-0.075C0.079,-0.076 0.08,-0.076 0.081,-0.077C0.093,-0.082 0.096,-0.099 0.09,-0.11C0.083,-0.122 0.068,-0.125 0.056,-0.119C0.043,-0.112 0.034,-0.1 0.029,-0.087C0.024,-0.074 0.025,-0.061 0.027,-0.048C0.031,-0.02 0.055,-0.003 0.08,0.004C0.103,0.01 0.128,0.011 0.151,0.01C0.175,0.01 0.197,0.005 0.219,-0.005C0.238,-0.015 0.254,-0.031 0.265,-0.049C0.277,-0.07 0.283,-0.095 0.287,-0.119C0.297,-0.174 0.299,-0.232 0.283,-0.287C0.271,-0.326 0.248,-0.364 0.214,-0.388C0.206,-0.393 0.197,-0.397 0.188,-0.4C0.202,-0.408 0.214,-0.417 0.225,-0.428C0.265,-0.468 0.293,-0.52 0.307,-0.575C0.313,-0.602 0.317,-0.631 0.317,-0.659C0.317,-0.67 0.317,-0.681 0.316,-0.691Z" style="fill:white;fill-rule:nonzero;"/>
        </g>
        <g transform="matrix(56,0,0,56,49.9581,31.0123)">
            <path d="M0.345,-0.503C0.342,-0.536 0.339,-0.568 0.336,-0.6C0.334,-0.617 0.333,-0.634 0.329,-0.65C0.325,-0.665 0.318,-0.68 0.311,-0.694C0.304,-0.708 0.296,-0.72 0.285,-0.731C0.273,-0.741 0.26,-0.748 0.246,-0.754C0.233,-0.759 0.219,-0.761 0.205,-0.762C0.191,-0.763 0.178,-0.762 0.165,-0.76C0.119,-0.75 0.087,-0.707 0.068,-0.667C0.053,-0.635 0.042,-0.601 0.035,-0.567C0.027,-0.524 0.021,-0.479 0.03,-0.436C0.03,-0.433 0.031,-0.431 0.033,-0.429C0.033,-0.379 0.034,-0.329 0.036,-0.28C0.038,-0.228 0.039,-0.175 0.053,-0.124C0.065,-0.08 0.09,-0.038 0.13,-0.014C0.151,-0.001 0.177,0.006 0.202,0.005C0.225,0.004 0.246,-0.005 0.263,-0.021C0.278,-0.036 0.288,-0.056 0.296,-0.075C0.304,-0.093 0.309,-0.111 0.313,-0.129C0.326,-0.189 0.338,-0.249 0.344,-0.31C0.351,-0.375 0.349,-0.439 0.345,-0.503ZM0.299,-0.378C0.299,-0.362 0.298,-0.346 0.297,-0.329C0.296,-0.322 0.296,-0.314 0.295,-0.307C0.294,-0.303 0.294,-0.299 0.293,-0.295L0.293,-0.289C0.293,-0.289 0.292,-0.286 0.292,-0.285C0.288,-0.254 0.282,-0.223 0.276,-0.193C0.271,-0.17 0.267,-0.147 0.261,-0.124C0.259,-0.115 0.256,-0.106 0.252,-0.097C0.252,-0.095 0.251,-0.093 0.25,-0.091C0.25,-0.09 0.25,-0.09 0.249,-0.089C0.247,-0.085 0.245,-0.08 0.243,-0.076C0.241,-0.072 0.239,-0.069 0.236,-0.065L0.235,-0.064C0.234,-0.062 0.232,-0.06 0.231,-0.059L0.227,-0.055C0.226,-0.054 0.224,-0.053 0.224,-0.052C0.221,-0.05 0.218,-0.049 0.215,-0.047L0.214,-0.047C0.212,-0.046 0.21,-0.045 0.208,-0.045C0.207,-0.045 0.207,-0.045 0.206,-0.044L0.187,-0.044C0.183,-0.045 0.178,-0.047 0.173,-0.048C0.171,-0.049 0.168,-0.05 0.166,-0.051C0.165,-0.051 0.164,-0.052 0.163,-0.052C0.158,-0.054 0.153,-0.057 0.149,-0.06C0.148,-0.061 0.145,-0.063 0.144,-0.063L0.141,-0.066C0.137,-0.07 0.133,-0.073 0.13,-0.077C0.129,-0.078 0.128,-0.079 0.128,-0.08C0.127,-0.08 0.125,-0.084 0.124,-0.085C0.121,-0.089 0.118,-0.094 0.116,-0.098C0.113,-0.103 0.111,-0.107 0.109,-0.112C0.109,-0.113 0.108,-0.113 0.108,-0.114C0.107,-0.116 0.106,-0.119 0.105,-0.122C0.102,-0.132 0.099,-0.142 0.097,-0.152L0.094,-0.167C0.093,-0.17 0.093,-0.172 0.092,-0.175L0.092,-0.179C0.088,-0.205 0.087,-0.232 0.086,-0.258C0.082,-0.331 0.081,-0.403 0.081,-0.476C0.081,-0.483 0.079,-0.488 0.075,-0.493C0.075,-0.501 0.076,-0.509 0.077,-0.517C0.077,-0.52 0.077,-0.523 0.078,-0.526C0.078,-0.528 0.078,-0.529 0.079,-0.531C0.08,-0.537 0.081,-0.544 0.082,-0.551C0.084,-0.562 0.087,-0.574 0.09,-0.585C0.093,-0.594 0.095,-0.603 0.099,-0.612C0.1,-0.617 0.102,-0.622 0.104,-0.626C0.104,-0.628 0.105,-0.63 0.106,-0.632C0.107,-0.634 0.107,-0.635 0.108,-0.637C0.112,-0.646 0.117,-0.656 0.123,-0.665C0.126,-0.67 0.128,-0.674 0.131,-0.678C0.132,-0.679 0.133,-0.681 0.134,-0.682L0.139,-0.687C0.142,-0.691 0.145,-0.694 0.149,-0.697L0.152,-0.7C0.151,-0.7 0.156,-0.703 0.157,-0.704C0.16,-0.706 0.163,-0.707 0.166,-0.709C0.167,-0.709 0.17,-0.71 0.171,-0.711C0.174,-0.712 0.176,-0.712 0.179,-0.713L0.209,-0.713C0.209,-0.712 0.21,-0.712 0.21,-0.712L0.213,-0.712C0.216,-0.711 0.219,-0.711 0.222,-0.71C0.224,-0.709 0.227,-0.708 0.23,-0.707C0.231,-0.707 0.232,-0.707 0.234,-0.706L0.235,-0.706C0.239,-0.704 0.243,-0.701 0.247,-0.698C0.247,-0.698 0.251,-0.695 0.252,-0.694C0.254,-0.692 0.256,-0.69 0.257,-0.688C0.258,-0.688 0.259,-0.687 0.259,-0.686C0.26,-0.685 0.261,-0.683 0.262,-0.682C0.264,-0.679 0.265,-0.676 0.267,-0.673C0.269,-0.67 0.27,-0.667 0.272,-0.664C0.273,-0.662 0.273,-0.66 0.274,-0.659C0.274,-0.658 0.275,-0.656 0.276,-0.655L0.282,-0.637C0.283,-0.634 0.284,-0.63 0.284,-0.627C0.284,-0.626 0.285,-0.625 0.285,-0.624C0.284,-0.627 0.285,-0.621 0.285,-0.619C0.287,-0.603 0.288,-0.587 0.29,-0.571C0.296,-0.507 0.301,-0.442 0.299,-0.378Z" style="fill:white;fill-rule:nonzero;"/>
        </g>
    </g>
</svg>
